Obsidian-SemiLight/actions/22s/labplot-4x-zoom.svg

<svg viewBox="0 0 22 22" xmlns="http://www.w3.org/2000/svg"><path d="m20.287449 16.967346h-1.287449v2.032654h-1.062754v-2.032654h-4.251012v-.936734l4.178138-6.030612h1.135628v5.975509h1.287449zm-2.350203-.991837v-2.816326q0-.838775.0668-1.983673h-.05466q-.0668.159183-.236842.477551-.163968.318367-.297571.502041l-2.659919 3.820407h3.182186z" fill="#3daee9"/><path d="m3 3v2h1v-1h1v-1zm5 0v1h2v-1zm4 0v1h2v-1zm5 0v1h1v1h1v-2zm-8 4v1h2.292969l-3.292969 3.292969.707031.707031 3.292969-3.2929688v2.2929688h1v-4h-1zm-6 1v2h1v-2zm0 5v6h6v-6zm1 1h4v4h-4z" fill="#4d4d4d"/></svg>

<svg xmlns="http://www.w3.org/2000/svg" viewBox="0 0 22 22">
  <defs id="defs3051">
    <style type="text/css" id="current-color-scheme">
      .ColorScheme-Text {
        color:#4d4d4d;
      }
      .ColorScheme-Highlight {
        color:#3daee9;
      }
      </style>
  </defs>
 <path 
     style="fill:currentColor;fill-opacity:1;stroke:none" 
     d="M 20.287449,16.967346 19,16.967346 19,19 l -1.062754,0 0,-2.032654 -4.251012,0 0,-0.936734 L 17.864372,10 19,10 l 0,5.975509 1.287449,0 0,0.991837 z m -2.350203,-0.991837 0,-2.816326 q 0,-0.838775 0.0668,-1.983673 l -0.05466,0 q -0.0668,0.159183 -0.236842,0.477551 -0.163968,0.318367 -0.297571,0.502041 l -2.659919,3.820407 3.182186,0 z"
     class="ColorScheme-Highlight"
     />
 <path 
     style="fill:currentColor;fill-opacity:1;stroke:none" 
     d="M 3,3 3,5 4,5 4,4 5,4 5,3 3,3 Z m 5,0 0,1 2,0 0,-1 -2,0 z m 4,0 0,1 2,0 0,-1 -2,0 z m 5,0 0,1 1,0 0,1 1,0 0,-2 -2,0 z M 9,7 9,8 11.292969,8 8,11.292969 8.707031,12 12,8.7070312 12,11 13,11 13,7 12,7 9,7 Z M 3,8 3,10 4,10 4,8 3,8 Z m 0,5 0,6 6,0 0,-6 -6,0 z m 1,1 4,0 0,4 -4,0 0,-4 z"
     class="ColorScheme-Text"
     />
</svg>
